X: 833
T: Geçti Âlâm-ı Firâkın Cânıma
C: Klarnet İbrahim Efendi
O: Turkey
F: http://compmusic.upf.edu/node/140
N: suzinak-zirgule--sarki--sofyan--gecti_alam-i--klarnet_ibrahim_efendi
N: makam= suzinak-zirgule
N: form= sarki
N: usul= sofyan = 4/4
M: 4/4
L: 1/16
K: C _1/4B _7/8e _7/8A ^f
Q: 1/4=90
%%MIDI tuningsystem comma53
gfge d4 fefd c4  | Bcde fgfe dcBc d4  | 
w:  ARANAĞME  |   | 
gfge .d4 fefd .c4  | Bcde dccB BAAG Gdef  | 
w:   |   | 
gfge d4 fefd c4  | Bcde fgfe dcBc d4  | 
w:  ARANAĞME  |   | 
gfge .d4 fefd .c4  | Bcde dccB BAAG Gdef  | 
w:   |   | 
g3d d2d2 efed c2B2  | cd{e}c2 d4 ef{g}e2 f4  | \
w:  Geç ti  â lâm_ ı  *  fi *  râ kın   |  câ   | 
_b=aga g2f2 gfef e2ed  | 
w:  câ *  *  *  *  *  *  *  *  *  *  nı  | 
d6fe dcBA Gdef  | g3d d2d2 efed c2B2  | 
w:  ma   SAZ  |  Geç ti  â lâm_ ı  *  fi *  râ kın   | 
cd{e}c2 d4 ef{g}e2 f4  | _b=aga g2f2 gfef e2ed  | 
w:  câ   |  câ *  *  *  *  *  *  *  *  *  *  nı  | 
d6de dcBc d/e/f/d/e2  | e3e e2ed efed c2B2  | 
w:  ma   SAZ  |  Gel  be nim  â *  hu  *  ba *  kış lım   | 
cdc2 Bc{d}B2 cdc2 d4  | edcd c2{d}B2 cBAB A2AG  | 
w:  yâ  *  *  *  *  *  *  yâ   |  yâ *  *  *  *  *  *  *  *  *  *  *  nı  | 
G6de dcBc d/e/f/d/e2  | e3e e2ed efed c2B2  | 
w:  ma   SAZ  |  Gel  be nim  â *  hu  *  ba *  kış lım   | 
cdc2 Bc{d}B2 cdc2 d4  | edcd c2{d}B2 cBAB A2AG  | 
w:  yâ  *  *  *  *  *  *  yâ   |  yâ *  *  *  *  *  *  *  *  *  *  *  nı  | 
G6=a_b agg=f g4  | =f3g g2g2 g2gf _2/4e2d2  | \
w:  ma   SAZ  |  Bâ is  ol ma  nâ le  *  vü  ef  | 
_2/4e=fe2 fgf2 g=ag{a}g a4  | 
w:  gâ  | 
_b=aga g2f2 gfef e2ed  | d6=a_b agg=f gf_2/4ed  | 
w:  *  *  *  *  *  *  *  *  *  *  *  nı  |  ma   SAZ  | 
=f3g g2g2 g2gf _2/4e2d2  | _2/4e=fe2 fgf2 g=ag{a}g a4  | \
w:  Bâ is  ol ma  nâ le  *  vü  ef  |  gâ  | 
_b=aga g2f2 gfef e2ed  | 
w:  *  *  *  *  *  *  *  *  *  *  *  nı  | 
d6de dcBc d/e/f/d/e2  | e3e e2ed efed c2B2  | 
w:  ma   SAZ  |  Gel  be nim  â *  hu  *  ba *  kış lım   | 
cdc2 Bc{d}B2 cdc2 d4  | edcd c2{d}B2 cBAB A2AG  | 
w:  yâ  *  *  *  *  *  *  yâ   |  yâ *  *  *  *  *  *  *  *  *  *  *  nı  | 
G6de dcBc d/e/f/d/e2  | e3e e2ed efed c2B2  | 
w:  ma   SAZ  |  Gel  be nim  â *  hu  *  ba *  kış lım   | 
cdc2 Bc{d}B2 cdc2 d4  | edcd c2{d}B2 cBAB A2AG  | 
w:  yâ  *  *  *  *  *  *  yâ   |  yâ *  *  *  *  *  *  *  *  *  *  *  nı  | 
G6|
w:  ma    | 


